images/catalog/catalog-header/breadcrambs/home-icon.svg

<svg width="13" height="13" viewBox="0 0 13 13" fill="none" xmlns="http://www.w3.org/2000/svg">
<path d="M6.37109 0.5L0.371094 6.30006V12.5001H12.3711V6.30006L6.37109 0.5ZM11.3711 11.5001H1.37109V6.70005L6.37109 1.9L11.3711 6.70005V11.5001Z" fill="white"/>
<path d="M4.37109 10.5001H5.37109V8.00005H7.37109V10.5001H8.37109V7.00005H4.37109V10.5001Z" fill="white"/>
</svg>

<svg xmlns="http://www.w3.org/2000/svg" width="13" height="13" fill="none"><path fill="#fff" d="m6.371.5-6 5.8v6.2h12V6.3l-6-5.8Zm5 11h-10V6.7l5-4.8 5 4.8v4.8Z"/><path fill="#fff" d="M4.371 10.5h1V8h2v2.5h1V7h-4v3.5Z"/></svg>
